X:72
M:6/8
L:1/8
K:A
|: e2c e2c | d2B d2B | c2A c2A | GBA GFE | e2c e2c | d2B d2f | edc BAG | A3 [A,3A3] :|

